public/images/case-studies/filemaker/featured1.svg

<svg width="64" height="64" viewBox="0 0 64 64" fill="none" xmlns="http://www.w3.org/2000/svg">
<g clip-path="url(#clip0)">
<path d="M60.1874 28.6242L50.1584 17.6086C48.2359 15.6807 44.8972 15.6673 42.9401 17.6246C42.3081 18.2566 41.8761 19.0166 41.6521 19.8272C39.7056 18.3338 36.7349 18.4966 34.9404 20.2911C34.3084 20.9231 33.8764 21.6831 33.6471 22.491C31.7058 20.9977 28.7327 21.1685 26.9407 22.9577C26.3194 23.579 25.8928 24.323 25.6608 25.1096L20.9356 20.3844C18.9491 18.4005 15.7224 18.3951 13.7145 20.4004C11.728 22.3843 11.728 25.6162 13.7145 27.6027L31.8684 45.7566L21.1062 47.4471C18.1943 47.8634 15.9998 50.3913 15.9998 53.3324C15.9998 55.5377 17.7943 57.3322 19.9996 57.3322H45.1426C49.0571 57.3322 52.7397 55.8069 55.5182 53.0338L59.71 48.8393C62.4779 46.0741 64.0005 42.3942 64.0005 38.4824C64.0005 34.8292 62.6459 31.3281 60.1874 28.6242ZM57.8221 46.9567L53.6303 51.1511C51.361 53.4177 48.3451 54.6656 45.1426 54.6656H19.9996C19.2663 54.6656 18.6663 54.0683 18.6663 53.3323C18.6663 51.711 19.8769 50.3164 21.4982 50.0818L34.871 47.9805C35.367 47.9031 35.775 47.5539 35.9324 47.0765C36.087 46.6019 35.9617 46.0766 35.607 45.722L15.5998 25.7149C14.6559 24.7683 14.6559 23.2296 15.6158 22.2671C16.0904 21.7951 16.7118 21.5577 17.3331 21.5577C17.9545 21.5577 18.5757 21.7951 19.0504 22.2697L26.8794 30.0987C26.898 30.1201 26.922 30.1414 26.9433 30.1627L32.3938 35.6105C32.9137 36.1305 33.7591 36.1305 34.279 35.6105C34.799 35.0905 34.799 34.2452 34.279 33.7252L28.7833 28.2294C27.8847 27.2801 27.9007 25.7735 28.8446 24.827C29.762 23.915 31.3565 23.9096 32.2739 24.827L34.8951 27.4508C34.9111 27.4668 34.9245 27.4828 34.9405 27.4962L37.7244 30.2775C38.2444 30.7975 39.0897 30.7975 39.6097 30.2775C40.1297 29.7575 40.1297 28.9122 39.6097 28.3922L36.7938 25.5789C35.8845 24.6296 35.8952 23.1124 36.8444 22.1604C37.759 21.2485 39.3563 21.2431 40.2737 22.1604L43.0576 24.9549C43.0602 24.9576 43.0602 24.9603 43.0629 24.9603L43.0656 24.9629C43.0872 24.9738 43.0818 24.9711 43.0762 24.9683C43.0762 24.9683 43.0762 24.9709 43.0788 24.9709C43.0814 24.9736 43.0814 24.9736 43.0814 24.9736C43.0841 24.9762 43.0841 24.9762 43.0841 24.9762H43.0867C43.0893 24.9762 43.0893 24.9762 43.0893 24.9762C43.6173 25.4668 44.4386 25.4536 44.9452 24.9416C45.4626 24.4216 45.4626 23.579 44.9426 23.059L44.7826 22.899C43.8813 21.9497 43.8947 20.4405 44.8412 19.4938C45.7586 18.5818 47.3958 18.6218 48.2277 19.4484L58.2113 30.4213C60.2246 32.6346 61.3312 35.4958 61.3312 38.485C61.3313 41.6823 60.0834 44.6928 57.8221 46.9567Z" fill="#7F8284"/>
<path d="M43.074 24.9684H43.0767C43.0739 24.9671 43.0713 24.9658 43.0713 24.9658C43.074 24.9684 43.0768 24.9684 43.074 24.9684Z" fill="#7F8284"/>
<path d="M28.2574 19.0778C26.3135 14.7794 22.0283 12.0007 17.3325 12.0007C10.7168 12.0007 5.33301 17.3845 5.33301 24.0002C5.33301 28.6934 8.11152 32.9812 12.4073 34.9252C12.586 35.0052 12.7727 35.0425 12.9567 35.0425C13.466 35.0425 13.9487 34.7492 14.1726 34.2586C14.474 33.5866 14.178 32.7973 13.506 32.4933C10.1622 30.9813 7.99965 27.6482 7.99965 24.0004C7.99965 18.854 12.1861 14.6674 17.3326 14.6674C20.9805 14.6674 24.3137 16.8299 25.8257 20.1738C26.1297 20.8457 26.9162 21.1444 27.591 20.8404C28.2602 20.5391 28.5588 19.7472 28.2574 19.0778Z" fill="#FF6B00"/>
<path d="M34.0652 19.5446C32.0521 11.9635 25.1696 6.66772 17.3327 6.66772C7.77568 6.66772 0 14.4434 0 24.0004C0 31.8374 5.29578 38.7198 12.8795 40.7331C12.9941 40.7651 13.1088 40.7785 13.2208 40.7785C13.8128 40.7785 14.3514 40.3865 14.5088 39.7891C14.6981 39.0771 14.2768 38.3466 13.5622 38.1572C7.14908 36.4533 2.66664 30.6321 2.66664 24.0004C2.66664 15.9127 9.24775 9.33437 17.3327 9.33437C23.9618 9.33437 29.7855 13.8142 31.4895 20.2299C31.6761 20.9393 32.3828 21.3659 33.1214 21.1765C33.8306 20.9871 34.252 20.2565 34.0652 19.5446Z" fill="#FF6B00"/>
</g>
<defs>
<clipPath id="clip0">
<rect width="64" height="64" fill="white"/>
</clipPath>
</defs>
</svg>

<svg xmlns="http://www.w3.org/2000/svg" width="64" height="64" fill="none" xmlns:v="https://vecta.io/nano"><g clip-path="url(#A)"><g fill="#7f8284"><path d="M60.187 28.624L50.158 17.609c-1.922-1.928-5.261-1.941-7.218.016-.632.632-1.064 1.392-1.288 2.203-1.947-1.493-4.917-1.331-6.712.464-.632.632-1.064 1.392-1.293 2.2-1.941-1.493-4.914-1.322-6.706.467-.621.621-1.048 1.365-1.28 2.152l-4.725-4.725c-1.986-1.984-5.213-1.989-7.221.016a5.1 5.1 0 0 0 0 7.202l18.154 18.154-10.762 1.691C18.194 47.863 16 50.391 16 53.332c0 2.205 1.794 4 4 4h25.143a14.59 14.59 0 0 0 10.376-4.298l4.192-4.194c2.768-2.765 4.291-6.445 4.291-10.357 0-3.653-1.355-7.154-3.813-9.858zm-2.365 18.333l-4.192 4.194c-2.269 2.267-5.285 3.514-8.488 3.514H20c-.733 0-1.333-.597-1.333-1.333 0-1.621 1.211-3.016 2.832-3.25l13.373-2.101c.496-.077.904-.427 1.061-.904s.029-1-.325-1.355L15.6 25.715c-.944-.947-.944-2.485.016-3.448a2.43 2.43 0 0 1 1.717-.709 2.42 2.42 0 0 1 1.717.712l7.829 7.829c.019.021.043.043.064.064l5.45 5.448c.52.52 1.365.52 1.885 0s.52-1.365 0-1.885l-5.496-5.496c-.899-.949-.883-2.456.061-3.402a2.49 2.49 0 0 1 3.429 0l2.621 2.624c.016.016.029.032.045.045l2.784 2.781c.52.52 1.365.52 1.885 0s.52-1.365 0-1.885l-2.816-2.813c-.909-.949-.899-2.466.051-3.419a2.49 2.49 0 0 1 3.429 0l2.784 2.794.008.008.011.005.011.008c.531.491 1.352.477 1.858-.035.517-.52.517-1.363-.003-1.883l-.16-.16a2.44 2.44 0 0 1 .059-3.405c.917-.912 2.555-.872 3.386-.045l9.984 10.973c2.013 2.213 3.12 5.075 3.12 8.064 0 3.197-1.248 6.208-3.509 8.472z"/><path d="M43.074 24.968h.003z"/></g><g fill="#ff6b00"><path d="M28.257 19.078c-1.944-4.298-6.229-7.077-10.925-7.077-6.616 0-11.999 5.384-11.999 12 0 4.693 2.779 8.981 7.074 10.925a1.34 1.34 0 0 0 .549.117c.509 0 .992-.293 1.216-.784.301-.672.005-1.461-.667-1.765C10.162 30.981 8 27.648 8 24c0-5.146 4.186-9.333 9.333-9.333 3.648 0 6.981 2.162 8.493 5.506a1.33 1.33 0 0 0 1.765.667c.669-.301.968-1.093.666-1.763zm5.808.467A17.34 17.34 0 0 0 17.333 6.668C7.776 6.668 0 14.443 0 24a17.34 17.34 0 0 0 12.88 16.733c.115.032.229.045.341.045a1.33 1.33 0 0 0 1.288-.989 1.33 1.33 0 0 0-.947-1.632A14.67 14.67 0 0 1 2.667 24c0-8.088 6.581-14.666 14.666-14.666A14.67 14.67 0 0 1 31.49 20.23c.187.709.893 1.136 1.632.947.709-.189 1.131-.92.944-1.632z"/></g></g><defs><clipPath id="A"><path fill="#fff" d="M0 0h64v64H0z"/></clipPath></defs></svg>
